!!!Genre:	Skotshne
!!!Mode:	Minor
!!!Listening/dance:	listening
!!!:	*B-:
!!!One_Mode:	no
**kern
*thru
*I"P1
*clefG2
*k[b-e-]
*g:
*M2/4
*>A
=1
8gL
(8qaa/
16ggL)
16ff#XJJ
8ggL
8ddJ
=2
(8qffn/
16ee-LL)
16dd
16cc
16ee-JJ
8.ddL
16ddJk
=3
(16ddLL
16cc)
(16cc
16b-JJ)
8.b-L
16ddJk
=4
(16ddLL
16cc)
(16cc
16b-JJ)
(16b-LL
16a)
(16a
16gJJ)
=5
8gL
(8qaa/
16ggL)
16ff#XJJ
8ggL
8ddJ
=6
16ee-LL
16dd
16cc
16ee-JJ
8.ddL
16ddJk
=7
(16ddLL
16cc)
(16cc
16b-JJ)
(16b-LL
16f)
(16f
16b-JJ)
=8
(16b-LL
16a)
(16a
16gJJ)
8.gL
16dJk
=9:|!|:
*>B
16dLL
16f#X
16a
16ccJJ
16b-LL
16a
16g
16f#JJ
=10
16gLL
16d
16b-
16gJJ
16ddLL
16b-
16gg
16ddJJ
=11
(16ddLL
16ddd)
(16bb-
16dddJJ)
(16aaLL
16ddd)
(16bb-
16dddJJ)
=12
16bb-LL
16aa
16gg
16ff#XJJ
(16ggLL
16aaJ
8ddJ)
=13
(16dLL
16f#X
16a
16ccJJ
16b-LL)
16a
16g
16f#JJ
=14||
16gLL
16gg
16ffn
16ee-JJ
16ddLL
16cc
16b-
16aJJ
=15
(20b-LL
20cc
20b-)
20a
20gJJ
(16gLL
16ee-)
16dd
16ccJJ
*>B1
=16
16b-LL
16cc
16a
16b-JJ
8.gL
16dJk
*>B2
=17:|!
16b-LL
16cc
16a
16b-JJ
8.gL
*>bM
*B-:
!LO:TX:a:i:t=Bb-major
16fJk
*>C
=18!|:
4.ff
16eenLL
16ggJJ
=19
(4.ff
8bb-)
=20
(16bb-LL
16aa
16gg
16ffJJ)
(16ggLL
16ff
16ee-
16ddJJ)
=21
16ee-LL
16dd
16cc
16b-JJ
16ccLL
16b-
16a
16gJJ
=22
16fLL
16g
16a
16b-JJ
16ccLL
16dd
16ee-
16ddJJ
=23
4.cc
8dd
=24
(16ddLL
16ee-)
(16cc
16ddJJ)
(16b-LL
16cc)
(16a
16b-JJ)
=25
(16gLL
16a)
16f
16gJJ
16fLL
16e-
16d
16cJJ
=26
(16B-LL
16A)
(16A
16cJJ)
(16cLL
16B-)
16A
16cJJ
*>C1
=27
4.B-
8f
*>C2
=28:|!
4.B-
*>eM
*g:
!LO:TX:a:i:t=G-minor
8g
*>D
=29!|:
(16gLL
16b-)
16a
16gJJ
(16gLL
16ee-)
16dd
16ccJJ
=30
4.dd
8dd
=31
8bb-L
16aaL
16ggJJ
16ff#XLL
16gg
16aa
16ff#JJ
=32
2gg
=33
16aa-XLL
16gg
16ff
16ee-JJ
16ddLL
16ccJ
8b-J
=34
16ffLL
16ee-
16dd
16ccJJ
16b-LL
16aJ
8gJ
=35
(20b-LL
20cc
20b-)
20a
20gJJ
(16gLL
16ee-
16dd
16ccJJ)
*>D1
=36
(16b-LL
16cc)
(16a
16b-JJ)
8gL
8dJ
*>D2
=37:|!
(16b-LL
16cc)
(16a
16b-JJ)
8g
8r
==
*-
